icons/looker.svg

<?xml version="1.0" encoding="UTF-8"?>
<svg width="512px" height="137px" viewBox="0 0 512 137" version="1.1" xmlns="http://www.w3.org/2000/svg" xmlns:xlink="http://www.w3.org/1999/xlink" preserveAspectRatio="xMidYMid">
    <g>
        <g>
            <path d="M41.8942258,0 C37.5011936,0.00192689126 33.4670086,2.42545305 31.4022679,6.3030272 C29.3375271,10.1806014 29.5785565,14.8806047 32.0291282,18.526621 L37.108543,13.4543703 C36.9406628,12.9483856 36.8559805,12.4185165 36.8577961,11.8854115 C36.8577961,9.1157382 39.1030599,6.87047439 41.8727332,6.87047439 C44.6424064,6.87047439 46.8876703,9.1157382 46.8876703,11.8854115 C46.8876703,14.6550847 44.6424064,16.9003485 41.8727332,16.9003485 C41.3420209,16.9015163 40.814613,16.8168408 40.3109385,16.6496017 L35.2386879,21.7218523 C39.4626414,24.5866551 45.044031,24.434893 49.1060661,21.3447879 C53.1681013,18.2546829 54.8038045,12.9161984 53.1700926,8.08092549 C51.5363807,3.24565259 46.9980315,-0.00678153988 41.8942258,0 L41.8942258,0 Z" fill="#34A853"></path>
            <path d="M37.1658912,34.6388973 C37.1736324,30.6239859 35.8734175,26.7157966 33.4619673,23.5057371 L26.8709072,30.089633 C28.9321678,33.8597352 28.1903959,38.5458501 25.0655298,41.4950327 L28.6476277,50.24968 C33.955097,46.8314875 37.1634032,40.9518415 37.1658912,34.6388973 Z" fill="#FBBC04"></path>
            <path d="M18.7467091,44.0884716 L18.5747684,44.0884716 C14.5320091,44.0888222 10.9361434,41.5192392 9.62686941,37.6943596 C8.31759546,33.8694799 9.58451644,29.6353426 12.7794568,27.1581952 C15.9743971,24.6810479 20.3906562,24.5088197 23.7688104,26.7296252 L30.2953928,20.2030428 C23.949072,15.0579999 14.9868711,14.6611145 8.21059518,19.2250315 C1.43431924,23.7889485 -1.56655967,32.2431361 0.815781733,40.0579748 C3.19812313,47.8728135 10.4048727,53.2152214 18.5747684,53.2228235 C19.8353725,53.2234415 21.0929114,53.0986476 22.328807,52.8502831 L18.7467091,44.0884716 Z" fill="#EA4335"></path>
            <path d="M42.1449726,51.6610266 C38.0198684,51.6568477 33.9164661,52.2578755 29.9658398,53.4449113 L35.1885385,66.204344 C37.4619558,65.6409537 39.7956233,65.3570643 42.1378084,65.3589689 C55.7094001,65.3629258 67.3884651,74.9527427 70.0331473,88.2641578 C72.6778295,101.575573 65.5516287,114.901578 53.0122826,120.093198 C40.4729364,125.284817 26.012445,120.896271 18.4735324,109.611197 C10.9346197,98.3261219 12.4167482,83.2872242 22.0135824,73.6909287 C24.0160977,71.6946712 26.3022171,70.0048258 28.7980758,68.6759916 L23.6326907,55.9523798 C4.37848958,65.3820425 -4.73774028,87.7561864 2.4437088,107.956919 C9.62515788,128.157651 30.8189214,139.756459 51.7046729,134.916192 C72.5904243,130.075925 86.5216563,110.33691 84.0852322,89.0365193 C81.6488081,67.7361288 63.6200752,51.6528222 42.1807936,51.6538624 L42.1449726,51.6610266 Z" fill="#4285F4"></path>
        </g>
        <path d="M234.396167,49.7840073 C239.748155,52.9647587 244.12636,57.5510954 247.055301,63.0449337 C250.105105,68.7443881 251.665048,75.1221671 251.590237,81.5858724 C251.665048,88.0495777 250.105105,94.4273568 247.055301,100.126811 C244.128319,105.619718 239.752681,110.205961 234.403331,113.387738 C223.09193,119.889497 209.177334,119.889497 197.865933,113.387738 L197.858768,113.359081 C192.506191,110.181357 188.129581,105.594094 185.206799,100.098154 C182.153776,94.3999326 180.593627,88.0213131 180.671863,81.5572157 C180.598474,75.1027959 182.158477,68.734631 185.206799,63.0449337 C188.129581,57.548994 192.506191,52.9617312 197.858768,49.7840073 C209.17017,43.2822475 223.084766,43.2822475 234.396167,49.7840073 Z M311.468585,49.7840073 C316.822185,52.9627342 321.200875,57.5495796 324.127719,63.0449337 C327.177523,68.7443881 328.737467,75.1221671 328.662655,81.5858724 C328.737467,88.0495777 327.177523,94.4273568 324.127719,100.126811 C321.202834,105.621232 316.826711,110.207984 311.47575,113.387738 C300.164349,119.889497 286.249752,119.889497 274.938351,113.387738 L274.931187,113.359081 C269.581837,110.177305 265.206199,105.591061 262.279217,100.098154 C259.229413,94.3987 257.66947,88.020921 257.744281,81.5572157 C257.674306,75.1031887 259.234104,68.7358603 262.279217,63.0449337 C265.206199,57.5520272 269.581837,52.9657835 274.931187,49.7840073 C286.242588,43.2822475 300.157184,43.2822475 311.468585,49.7840073 Z M430.48737,44.8693689 C437.250371,44.8693689 443.11546,46.3810143 448.082635,49.4043049 C453.023775,52.3950105 457.002308,56.7415578 459.545349,61.9273191 C462.286629,67.6353047 463.64626,73.9082605 463.514313,80.2390036 C463.509527,81.416616 463.418538,82.5922981 463.242074,83.7566238 L408.543439,83.7566238 C408.815678,89.0103674 410.078965,93.4330642 412.333298,97.0247144 C414.409785,100.46001 417.381531,103.265834 420.930333,105.141748 C424.287907,106.918198 428.028513,107.847816 431.827075,107.849814 C440.844409,107.849814 447.655172,103.699357 452.259361,95.3984419 L462.002668,100.133975 C459.223863,105.518926 455.068708,110.072046 449.959655,113.330424 C444.815762,116.582969 438.635449,118.209241 431.418716,118.209241 C425.185475,118.312519 419.046311,116.680369 413.687331,113.495201 C408.473732,110.359436 404.232747,105.838199 401.436556,100.434872 C398.445701,94.6391499 396.936895,88.1928811 397.044904,81.6718428 C396.995732,75.3281147 398.412887,69.0587986 401.18581,63.3529941 C403.801396,57.8698543 407.873175,53.2107277 412.956583,49.884306 C418.173888,46.5118873 424.27586,44.7663291 430.48737,44.8693689 Z M137.020418,17.4376632 L137.020418,106.939961 L180.671863,106.939961 L180.671863,118.209241 L125.163674,118.209241 L125.163674,17.4376632 L137.020418,17.4376632 Z M349.030464,17.4376632 L349.030464,81.1416923 L384.708159,44.8980257 L399.75297,44.8980257 L399.75297,45.456833 L369.663348,75.8401874 L398.391773,117.679091 L398.391773,118.209241 L384.178009,118.209241 L361.302732,84.0360274 L349.030464,96.3369516 L349.030464,118.209241 L337.180884,118.209241 L337.180884,17.4376632 L349.030464,17.4376632 Z M512.00159,46.4168352 L512.00159,59.104626 C508.879012,57.5857027 505.443775,56.8201356 501.971716,56.8693969 C498.583586,56.8531143 495.272306,57.8785106 492.486321,59.8067172 C489.559806,61.8128878 487.184864,64.5228839 485.580036,67.6873326 C483.862644,70.9896803 482.977316,74.6613297 483.000926,78.3834769 L483.000926,118.209241 L471.165674,118.209241 L471.165674,44.9123541 L482.456447,44.9123541 L482.456447,58.5243261 L483.015254,58.5243261 C484.409884,54.6174514 487.10601,51.3625184 491.103631,48.7595273 C494.806729,46.2592801 499.165795,44.908443 503.63381,44.8765331 C506.499741,44.8036731 509.349455,45.3282353 512.00159,46.4168352 Z M216.127468,55.3001302 C207.462662,55.266476 199.480504,59.9979688 195.3513,67.6156906 C193.068424,71.9012703 191.928483,76.7028408 192.041441,81.5572157 C191.927835,86.4116587 193.067815,91.2133912 195.3513,95.4987407 C198.404537,101.099026 203.591138,105.227976 209.733362,106.948015 C215.875586,108.668053 222.452221,107.833222 227.969883,104.63309 L227.948391,104.63309 C231.670814,102.455537 234.72198,99.2953124 236.767516,95.4987407 C239.05685,91.2153328 240.199519,86.4126674 240.084539,81.5572157 C240.198542,76.7018668 239.055931,71.8994466 236.767516,67.6156906 C234.72785,63.8219364 231.684391,60.6619934 227.969883,58.481341 C224.37931,56.3777122 220.288839,55.2790011 216.127468,55.3001302 Z M293.178394,55.3001302 C288.995221,55.2853744 284.883311,56.3832024 281.264336,58.481341 C277.521439,60.6467337 274.453413,63.8090081 272.402226,67.6156906 C270.113811,71.8994466 268.9712,76.7018668 269.085203,81.5572157 C268.970223,86.4126674 270.112892,91.2153328 272.402226,95.4987407 C274.453413,99.3054232 277.521439,102.467698 281.264336,104.63309 C284.883311,106.731229 288.995221,107.829057 293.178394,107.814465 C297.349476,107.840585 301.450518,106.741693 305.049466,104.63309 L305.020809,104.63309 C308.733709,102.450399 311.776678,99.2909652 313.818442,95.4987407 C316.104414,91.2140596 317.24687,86.4122902 317.135464,81.5572157 C317.245899,76.7022438 316.1035,71.9007174 313.818442,67.6156906 C311.776678,63.8234661 308.733709,60.664032 305.020809,58.481341 C301.430236,56.3777122 297.339765,55.2790011 293.178394,55.3001302 Z M416.689129,60.5088084 C412.901658,63.9858314 410.420458,68.5661406 409.24553,74.2497359 L451.33518,74.2497359 C451.116365,71.2277182 450.287767,68.2813214 448.899354,65.5882232 C447.345522,62.584601 445.005632,60.059005 442.129189,58.2807435 C439.062913,56.2938732 435.184695,55.300438 430.494535,55.300438 C425.392056,55.1842322 420.443329,57.0512404 416.689129,60.5088084 Z" fill="#5F6368"></path>
    </g>
</svg>

<svg xmlns="http://www.w3.org/2000/svg" viewBox="0 0 512.002 136.011">
  <path fill="#34a853" d="M41.894 0a11.893 11.893 0 0 0-9.865 18.527l5.08-5.073a5.015 5.015 0 1 1 3.202 3.195l-5.072 5.073A11.885 11.885 0 1 0 41.894 0z"/>
  <path fill="#fbbc04" d="M37.166 34.639a18.477 18.477 0 0 0-3.704-11.133l-6.591 6.584a9.45 9.45 0 0 1-1.805 11.405l3.582 8.755a18.577 18.577 0 0 0 8.518-15.611z"/>
  <path fill="#ea4335" d="M18.747 44.088h-.172a9.457 9.457 0 1 1 5.194-17.358l6.526-6.527a18.584 18.584 0 1 0-11.72 33.02c1.26 0 2.518-.124 3.754-.373z"/>
  <path fill="#4285f4" d="M42.145 51.661a42.175 42.175 0 0 0-12.18 1.784l5.224 12.76a28.793 28.793 0 0 1 6.949-.846c13.571.004 25.25 9.594 27.895 22.905 2.645 13.312-4.481 26.638-17.02 31.83-12.54 5.19-27 .802-34.54-10.483-7.538-11.285-6.056-26.324 3.54-35.92a28.743 28.743 0 0 1 6.785-5.015l-5.165-12.724c-19.255 9.43-28.37 31.804-21.19 52.005 7.182 20.2 28.376 31.8 49.262 26.96 20.885-4.841 34.817-24.58 32.38-45.88-2.436-21.3-20.465-37.384-41.904-37.383z"/>
  <path fill="#5f6368" d="M234.396 49.784a34.073 34.073 0 0 1 12.66 13.26 38.357 38.357 0 0 1 4.534 18.542 38.357 38.357 0 0 1-4.535 18.54 34.073 34.073 0 0 1-12.652 13.262 36.66 36.66 0 0 1-36.537 0l-.007-.029a33.973 33.973 0 0 1-12.652-13.26 38.278 38.278 0 0 1-4.535-18.542 38.278 38.278 0 0 1 4.535-18.512 33.973 33.973 0 0 1 12.652-13.261 36.66 36.66 0 0 1 36.537 0zm77.073 0a34.023 34.023 0 0 1 12.659 13.26 38.357 38.357 0 0 1 4.535 18.542 38.357 38.357 0 0 1-4.535 18.54 34.023 34.023 0 0 1-12.652 13.262 36.66 36.66 0 0 1-36.538 0l-.007-.029a34.073 34.073 0 0 1-12.652-13.26 38.357 38.357 0 0 1-4.535-18.542 38.357 38.357 0 0 1 4.535-18.512 34.073 34.073 0 0 1 12.652-13.261 36.66 36.66 0 0 1 36.538 0zm119.018-4.915c6.763 0 12.628 1.512 17.596 4.535a30.161 30.161 0 0 1 11.462 12.523 40.356 40.356 0 0 1 3.97 18.312 24.162 24.162 0 0 1-.273 3.518h-54.699c.273 5.253 1.536 9.676 3.79 13.268a22.13 22.13 0 0 0 8.597 8.117 23.327 23.327 0 0 0 10.897 2.708c9.017 0 15.828-4.15 20.432-12.452l9.744 4.736a34.316 34.316 0 0 1-12.043 13.196c-5.144 3.253-11.325 4.88-18.541 4.88a33.614 33.614 0 0 1-17.732-4.715 32.87 32.87 0 0 1-12.25-13.06 39.489 39.489 0 0 1-4.392-18.763 41.18 41.18 0 0 1 4.14-18.319 33.156 33.156 0 0 1 11.772-13.469 31.336 31.336 0 0 1 17.53-5.015zM137.02 17.438v89.502h43.652v11.27h-55.508V17.437zm212.01 0v63.704l35.678-36.244h15.045v.559l-30.09 30.383 28.729 41.84v.53h-14.214l-22.875-34.174-12.273 12.301v21.872h-11.85V17.438zm162.972 28.979v12.688a22.209 22.209 0 0 0-10.03-2.236 16.528 16.528 0 0 0-9.486 2.938 21.156 21.156 0 0 0-6.906 7.88A22.868 22.868 0 0 0 483 78.383l-11.849 39.826h.015V44.912h11.29v13.612h.56c1.394-3.907 4.09-7.161 8.088-9.764a22.682 22.682 0 0 1 12.53-3.883 20.654 20.654 0 0 1 8.368 1.54zM216.127 55.3a23.528 23.528 0 0 0-20.776 12.316 28.256 28.256 0 0 0-3.31 13.941 28.241 28.241 0 0 0 3.31 13.942 23.642 23.642 0 0 0 32.619 9.134h-.022a23.491 23.491 0 0 0 8.82-9.134 28.162 28.162 0 0 0 3.317-13.942 28.184 28.184 0 0 0-3.317-13.941 23.491 23.491 0 0 0-8.798-9.135 23.194 23.194 0 0 0-11.843-3.18zm77.051 0a23.588 23.588 0 0 0-11.914 3.181 23.348 23.348 0 0 0-8.862 9.135 28.184 28.184 0 0 0-3.317 13.941 28.162 28.162 0 0 0 3.317 13.942 23.348 23.348 0 0 0 8.862 9.134 23.59 23.59 0 0 0 11.914 3.181 23.196 23.196 0 0 0 11.871-3.18h-.028a23.542 23.542 0 0 0 8.797-9.135 28.241 28.241 0 0 0 3.317-13.942 28.263 28.263 0 0 0-3.317-13.941 23.542 23.542 0 0 0-8.797-9.135 23.194 23.194 0 0 0-11.843-3.18zM416.69 60.51c-3.787 3.477-6.269 8.057-7.443 13.74h42.09a22.438 22.438 0 0 0-2.437-8.66 18.684 18.684 0 0 0-6.77-7.308c-3.066-1.987-6.944-2.98-11.634-2.98a19.716 19.716 0 0 0-13.806 5.208z"/>
</svg>
